!!!COM:	la Rue, Pierre de
!!!CDT:	~1452///-1518/11/20
!!!OPR:	Missa Tous les regretz
!!!ONM:	1
!!!OTL:	Kyrie
!!!AGN:	Mass; Kyrie
!!!SCT:	Rue1031a
!!!SCA:	Rue1031a
!!!voices-OPR:	4
!!!voices:	4
**kern	**kern	**kern	**kern
*staff4	*staff3	*staff2	*staff1
*Ivox	*Ivox	*Ivox	*Ivox
*I"Bassus	*I"Tenor	*I"Contra	*I"Discantus
*I'B	*I'T	*I'C	*I'D
*>[A,B,C]	*>[A,B,C]	*>[A,B,C]	*>[A,B,C]
*>A	*>A	*>A	*>A
*clefF4	*clefGv2	*clefGv2	*clefG2
*k[]	*k[]	*k[]	*k[]
*M2/1	*M2/1	*M2/1	*M2/1
*met(C2)	*met(C2)	*met(C2)	*met(C2)
!!section: Kyrie I
!!!OMD: Kyrie I
=1-	=1-	=1-	=1-
0r	0r	0d	0r
=2.	=2.	=2.	=2.
0r	0r	1d	0r
.	.	2d\	.
.	.	4c\	.
.	.	4B\	.
=3	=3	=3	=3
0r	0r	2d\	0a
.	.	2.c\	.
.	.	4B\	.
.	.	4A/	.
.	.	4G/	.
=4.	=4.	=4.	=4.
0D	0r	1F	1a
.	.	2A/	2a/
.	.	2B\	4g/
.	.	.	4f/
=5	=5	=5	=5
1C	0r	2c\	2a/
.	.	4B\	2.g/
.	.	4A/	.
1C	.	1G	.
.	.	.	4f/
.	.	.	4e/
.	.	.	4d/
=6.	=6.	=6.	=6.
2AA/	[0A	1r	0c
2.C/	.	.	.
.	.	[1c	.
4BB/	.	.	.
4AA/	.	.	.
4GG/	.	.	.
=7	=7	=7	=7
0FF	0A_	2c\]	1r
.	.	4B\	.
.	.	4A/	.
.	.	2c\	[1f
.	.	[2F/	.
=8.	=8.	=8.	=8.
1r	0A_	4F/]	2f/]
.	.	4G/	.
.	.	4A/	4e/
.	.	4B\	4d/
[1AA	.	[1c	2f/
.	.	.	[2e/
=9	=9	=9	=9
2AA/]	0A]	2c\]	4e/]
.	.	.	4d/
2BB/	.	2d\	4c/
.	.	.	4B/
2C/	.	2e\	1A
[2D\	.	[2f\	.
=10.	=10.	=10.	=10.
2D\]	1A	2f\]	2r
4C/	.	4e\	2a/
4BB/	.	4d\	.
1AA	2A/	2f\	[1cc
.	4G/	2e\	.
.	4F/	.	.
=11	=11	=11	=11
0C	2A/	0c	2cc\]
.	2.G/	.	4b\
.	.	.	4a/
.	.	.	2g/
.	4F/	.	.
.	4E/	.	[2cc\
.	4D/	.	.
=12.	=12.	=12.	=12.
2AA/	2C/	0r	2cc\]
2FF/	1F	.	2a/
1GG	.	.	1b-i
.	2E/	.	.
=13	=13	=13	=13
0FF	0F	2r	1.a
.	.	2C/	.
.	.	2F/	.
.	.	4E/	4g/
.	.	4D/	4f/
=14.	=14.	=14.	=14.
0r	[0c	2E/	2g/
.	.	2F/	2a/
.	.	1C	1e
=15	=15	=15	=15
1.F	0c]	2r	2r
.	.	1F	1a
4E\	.	2A/	4g/
4D\	.	.	4f/
=16.	=16.	=16.	=16.
2E\	[0c	2G/	2g/
2F\	.	2F/	2a/
2C/	.	[1A	2e/
2FF/	.	.	[2cc\
=17	=17	=17	=17
1F	1c]	1A]	4cc\]
.	.	.	4b\
.	.	.	4a/
.	.	.	4g/
1A	1c	1c	2f/
.	.	.	2e/
=18.	=18.	=18.	=18.
1G	[0B	1d	1.g
2E\	.	1G	.
2F\	.	.	4f/
.	.	.	4e/
=19	=19	=19	=19
1G	0B]	1r	2d/
.	.	.	2.g/
1GG	.	2.G/	.
.	.	.	4f/
.	.	.	4e/
.	.	4F/	4d/
=20.	=20.	=20.	=20.
0AA	0A	4E/	1c
.	.	4D/	.
.	.	2F/	.
.	.	1E	2r
.	.	.	2c/
=21	=21	=21	=21
2r	0r	1D	2d/
1D	.	.	1f
.	.	2r	.
2C/	.	[2G/	[2e/
=22.	=22.	=22.	=22.
1E	0r	1G]	2e/]
.	.	.	2e/
2D\	.	[1A	2f/
[2F\	.	.	[2a/
=23	=23	=23	=23
2F\]	0r	2A/]	2a/]
2E\	.	1B	1g
2G\	.	.	.
2GG/	.	2B\	2g/
=24.	=24.	=24.	=24.
2.C/	1r	4c\	2a/
.	.	4B\	.
.	.	4A/	1cc
4BB/	.	4G/	.
1AA	1A	1F#i	.
.	.	.	4b\
.	.	.	4a/
=25	=25	=25	=25
0GG	0d	1G	0b
.	.	2r	.
.	.	2G/	.
=26.	=26.	=26.	=26.
0r	0c	1.A	2r
.	.	.	2e/
.	.	.	2.e/
.	.	4G/	.
.	.	4F/	4f/
=27	=27	=27	=27
0r	1r	2E/	2g/
.	.	2.F/	2.a/
.	1c	.	.
.	.	4G/	4b\
.	.	[2A/	[2cc\
=28.	=28.	=28.	=28.
0r	1d	2A/]	2cc\]
.	.	2G/	2.b\
.	1c	1A	.
.	.	.	4a/
.	.	.	[2a/
=29	=29	=29	=29
0r	0B	0E	2a/]
.	.	.	4g#i/
.	.	.	4f#i/
.	.	.	1g#i
=30.	=30.	=30.	=30.
2r	[0Al	2r	[0a
2.AA/	.	2.c\	.
4BB/	.	4d\	.
2C/	.	2e\	.
=31	=31	=31	=31
2D\	0A_	2f\	0a]
2C/	.	2e\	.
2.F\	.	2d\	.
.	.	[2f\	.
4E\	.	.	.
=32.	=32.	=32.	=32.
2D\	0A_	2f\]	1r
4C/	.	4e\	.
4BB/	.	4d\	.
[1AA	.	2.c\	2r
.	.	.	[2c/
.	.	4d\	.
=33	=33	=33	=33
1AA]	0A_	2e\	4c/]
.	.	.	4d/
.	.	2.A/	2e/
1AA	.	.	2f/
.	.	4B\	.
.	.	2c\	2e/
=34.	=34.	=34.	=34.
[0AAl	0A_	2F/	2.a/
.	.	2E/	.
.	.	.	4g/
.	.	2C/	2f/
.	.	2D/	4e/
.	.	.	4d/
=35	=35	=35	=35
0AA_	0A_	1E	[0cl
.	.	1F	.
=36.	=36.	=36.	=36.
0AA]	0A]	0El	0c]
!!LO:LB:i:g=z
=37||	=37||	=37||	=37||
*>B	*>B	*>B	*>B
*clefF4	*clefGv2	*clefGv2	*clefG2
*k[]	*k[]	*k[]	*k[]
*M2/1	*M2/1	*M2/1	*M2/1
*met(C2)	*met(C2)	*met(C2)	*met(C2)
!!section: Christe
!!!OMD: Christe
0r	[0A	1c	0a
.	.	4c\	.
.	.	4B\	.
.	.	4A/	.
.	.	4G/	.
=38.	=38.	=38.	=38.
0r	0A]	1F	1a
.	.	4F/	4a/
.	.	4E/	4g/
.	.	4D/	4f/
.	.	4C/	4e/
=39	=39	=39	=39
1r	0B	1G	0d
[1D	.	1d	.
=40.	=40.	=40.	=40.
1D]	0A	1r	0r
4D\	.	[1d	.
4C/	.	.	.
4BB/	.	.	.
4AA/	.	.	.
=41	=41	=41	=41
[0GG	[0B	1d]	1r
.	.	4d\	[1g
.	.	4c\	.
.	.	4B\	.
.	.	4A/	.
=42.	=42.	=42.	=42.
0GG]	0B]	1G	1g]
.	.	1d	4g/
.	.	.	4f/
.	.	.	4e/
.	.	.	4d/
=43	=43	=43	=43
1r	0A	1e	0c
[1C	.	1r	.
=44.	=44.	=44.	=44.
1C]	0G	1e	0r
4C/	.	4e\	.
4BB/	.	4d\	.
4AA/	.	4c\	.
4GG/	.	4B\	.
=45	=45	=45	=45
[0FF	0A	1A	1r
.	.	1c	[1cc
=46.	=46.	=46.	=46.
0FF]	1r	4c\	1cc]
.	.	4B\	.
.	.	4A/	.
.	.	4G/	.
.	[1A	1F	4cc\
.	.	.	4b\
.	.	.	4a/
.	.	.	4g/
=47	=47	=47	=47
0r	1A]	1r	0f
.	4A/	1c	.
.	4G/	.	.
.	4F/	.	.
.	4E/	.	.
=48.	=48.	=48.	=48.
0r	0D	1d	1f
.	.	4d\	1f
.	.	4c\	.
.	.	4B\	.
.	.	4A/	.
=49	=49	=49	=49
1r	1r	1G	[0g
[1C	1G	4G/	.
.	.	4F/	.
.	.	4E/	.
.	.	4D/	.
=50.	=50.	=50.	=50.
1C]	4G/	1C	0g]
.	4F/	.	.
.	4E/	.	.
.	4D/	.	.
4C/	1C	[1c	.
4BB/	.	.	.
4AA/	.	.	.
4GG/	.	.	.
=51	=51	=51	=51
2FF/	1r	2c\]	2r
1F	.	4B\	2a/
.	.	4A/	.
.	1F	2c\	2.a/
2D\	.	2d\	.
.	.	.	4b\
=52.	=52.	=52.	=52.
2E\	2G/	2B\	2g/
2C/	1A	2c\	2e/
2.D\	.	2A/	2.f/
.	2D/	2B\	.
4BB/	.	.	4g/
=53	=53	=53	=53
2C/	2E/	2G/	2e/
2AA/	2F/	2A/	2c/
2BB/	2D/	2F/	2.d/
2GG/	2B\	2G/	.
.	.	.	4e/
=54.	=54.	=54.	=54.
0AA	2A/	2E/	2c/
.	2.c\	2C/	2A/
.	.	1c	2.e/
.	4B\	.	.
.	[2A/	.	.
.	.	.	8d/L
.	.	.	8c/J
=55	=55	=55	=55
0r	2A/]	0r	2B/
.	2G/	.	2b\
.	[1A	.	2a/
.	.	.	[2cc\
=56.	=56.	=56.	=56.
0r	1A]	1r	4cc\]
.	.	.	4b\
.	.	.	1a
.	1B	2.d\	.
.	.	.	2g#i/
.	.	4e\	.
=57	=57	=57	=57
2r	0A	2f\	0a
2D\	.	2f\	.
2D\	.	1e	.
2C/	.	.	.
=58.	=58.	=58.	=58.
1F	0r	1A	2r
.	.	.	2a/
1E	.	1B	2a/
.	.	.	2g/
=59	=59	=59	=59
1AA	2r	1A	1cc
.	2A/	.	.
1r	2A/	1r	1b
.	2G/	.	.
=60.	=60.	=60.	=60.
1r	1c	0e	2r
.	.	.	1a
1E	1B	.	.
.	.	.	2g/
=61	=61	=61	=61
1AA	2r	[0e	2a/
.	1A	.	1cc
1E	.	.	.
.	2G/	.	4b\
.	.	.	4a/
=62.	=62.	=62.	=62.
1r	1c	0e]	2b\
.	.	.	1a
1E	1B	.	.
.	.	.	2g#i/
=63	=63	=63	=63
2AA/	1.A	1r	2a/
1A	.	.	1cc
.	.	2r	.
2G\	2B\	[2d\	2b\
=64.	=64.	=64.	=64.
2.F\	1c	2d\]	0a
.	.	2c\	.
4E\	.	.	.
1D	1d	1f	.
=65	=65	=65	=65
0El	0Bl	0el	0gl
!!LO:LB:i:g=z
=66||	=66||	=66||	=66||
*>C	*>C	*>C	*>C
*clefF4	*clefGv2	*clefGv2	*clefG2
*k[]	*k[]	*k[]	*k[]
*M2/1	*M2/1	*M2/1	*M2/1
*met(C2)	*met(C2)	*met(C2)	*met(C2)
!!section: Kyrie II
!!!OMD: Kyrie II
0AA	0A	0c	1r
.	.	.	1e
=67.	=67.	=67.	=67.
1AA	1A	1c	1e
1GG	1B	2d\	1g
.	.	2e\	.
=68	=68	=68	=68
2FF/	1A	2.f\	0a
1F	.	.	.
.	.	4e\	.
.	2A/	2c\	.
[2F\	[2A/	2d\	.
=69.	=69.	=69.	=69.
2F\]	2A/]	1D	1a
4E\	4G/	.	.
4D\	4F/	.	.
1A	[1c	2r	2a/
.	.	[2A/	[2a/
=70	=70	=70	=70
0AA	2c\]	4A/]	2a/]
.	.	4G/	.
.	2B\	2E/	4g/
.	.	.	4f/
.	1A	1F	[1cc
=71.	=71.	=71.	=71.
2r	1G	1E	2cc\]
2E\	.	.	2b\
2F\	2r	2r	1a
2D\	2d\	2F/	.
=72	=72	=72	=72
0E	2B\	2G/	1g
.	1c	2C/	.
.	.	1G	2r
.	2B\	.	2g/
=73.	=73.	=73.	=73.
2r	2c\	2r	2a/
2E\	2B\	2G/	2g/
2F\	2A/	2D/	2a/
2D\	2d\	2F/	2f/
=74	=74	=74	=74
2E\	2G/	2E/	2g/
2AA/	1c	2.A/	2e/
2BB/	.	.	1d
.	.	4F/	.
2GG/	[2B\	2G/	.
=75.	=75.	=75.	=75.
1AA	2B\]	1E	2r
.	1A	.	1cc
1E	.	2r	.
.	2G/	[2e\	[2b\
=76	=76	=76	=76
1r	1A	2e\]	2b\]
.	.	2e\	1a
1E	1B	[1e	.
.	.	.	2g#i/
=77.	=77.	=77.	=77.
1AA	1A	1e]	0a
2.AA/	1r	2.c\	.
4BB/	.	4d\	.
=78	=78	=78	=78
2C/	2r	2e\	1r
1D	1F	2f\	.
.	.	2d\	[1a
2C/	[2E/	2e\	.
=79.	=79.	=79.	=79.
1D	2E/]	2A/	1a]
.	1D	1f	.
1AA	.	.	1a
.	2C/	[2e\	.
=80	=80	=80	=80
1r	1D	2e\]	0a
.	.	1d	.
1AA	1E	.	.
.	.	2c#i\	.
=81.	=81.	=81.	=81.
1.BB-	0D	0d	0f
2AA/	.	.	.
=82	=82	=82	=82
1GG	1E	1B	1g
2FF/	1F	1A	2a/
2F\	.	.	2f/
=83.	=83.	=83.	=83.
2C/	2G/	2r	2e/
2F\	2A/	1c	2f/
2E\	2G/	.	2g/
2F\	2c\	4B\	2a/
.	.	4A/	.
=84	=84	=84	=84
2G\	2B\	2G/	2b\
1A	2A/	2F/	1cc
.	[1c	1A	.
[2F\	.	.	4b\
.	.	.	4a/
=85.	=85.	=85.	=85.
2F\]	0c_	2r	1g
2E\	.	2.c\	.
1F	.	.	2r
.	.	4B\	.
.	.	2A/	[2cc\
=86	=86	=86	=86
2r	1c]	2G/	4cc\]
.	.	.	4b\
2F\	.	2F/	2a/
2E\	1c	2G/	2g/
2F\	.	2A/	[2cc\
=87.	=87.	=87.	=87.
2E\	2r	2G/	4cc\]
.	.	.	4b\
2F\	2.c\	2F/	2a/
2E\	.	1c	2g/
.	4B\	.	.
2F\	2A/	.	[2f/
=88	=88	=88	=88
1C	1G	2.c\	2f/]
.	.	.	2e/
.	.	4B\	.
2FF/	1F	2c\	2f/
2BB-/	.	2d\	2d/
=89.	=89.	=89.	=89.
2C/	2E/	2c\	2e/
2D\	2D/	2A/	1f
1BB-i	1F	1B-	.
.	.	.	2d/
=90	=90	=90	=90
2C/	2E/	2G/	2e/
2D\	2D/	2F/	1f
1BB-i	2F/	1D	.
.	2G/	.	4e/
.	.	.	4d/
=91.	=91.	=91.	=91.
1AA	1A	1E	1c
2r	1D	2.F/	2r
[2D\	.	.	[2f/
.	.	4G/	.
=92	=92	=92	=92
2D\]	2r	2A/	2f/]
2BB-i/	2F/	2B-i\	2d/
2C/	2E/	2G/	2e/
[2D\	2D/	2F/	[2f/
=93.	=93.	=93.	=93.
2D\]	1F	2A/	2f/]
2BB-i/	.	2B-i\	2d/
2C/	2E/	2G/	2e/
2D\	[2A/	2F/	[2f/
=94	=94	=94	=94
1BB-	4A/]	1D	2f/]
.	4G/	.	.
.	2.G/	.	4e/
.	.	.	4d/
1AA	.	1A	1c
.	4E/	.	.
.	2F/	.	.
=95.	=95.	=95.	=95.
0GG	2G/	0B-i	2r
.	2D/	.	2d/
.	2.G/	.	2e/
.	.	.	[2g/
.	4F/	.	.
=96	=96	=96	=96
0AA	4E/	0A	4g/]
.	4D/	.	4f/
.	2F/	.	4e/
.	.	.	4d/
.	1E	.	2.d/
.	.	.	4c#i/
=97.	=97.	=97.	=97.
0Dl	0Dl	0Al	0dl
==	==	==	==
*-	*-	*-	*-
!!!RDF**kern: l=long note in original notation
!!!RDF**kern: i=editorial accidental
!!!ENC:	Chris Gage 06-10-2013
!!!END:	2013/08/05/
!!!EED:	Jesse Rodin
!!!EEV:	2013/08/05/
!!!ONB:	Translated from MusicXML and edited on 2013/08/05/ by Craig Sapp
!!muse2ps: T^@{OPR}^u^@{ONM}{. }@{OTL}^C^@{COM}^i2I150v85,85,85,150Q8c120
